X: 1065
T: Missa Sacerdotes Domini Crucifixus Credo
C: Giovanni Perluigi da Palestrina
L: 1/4
M: 4/2
N: Derived from Credo_46_b.krn
Q: "Credo"
%%staves [1 2 3 4]
V: 1 clef=treble
V: 2 clef=treble
V: 3 clef=treble-8
V: 4 clef=bass
K: C
[V:1] G8 | 
[V:2] E8 | 
[V:3] c8 | 
[V:4] C,8 | 
[V:1] G4G4 | 
[V:2] E4D3E | 
[V:3] c4B4 | 
[V:4] C,4G,4 | 
[V:1] A2A4G2 | 
[V:2] F4E2E2- | 
[V:3] c8 | 
[V:4] F,2F,G,A,B,C2- | 
[V:1] E2G2>F2E2- | 
[V:2] E2D2B,2C2 | 
[V:3] z8 | 
[V:4] C2B,2G,2A,2 | 
[V:1] E2D2E3F | 
[V:2] A,4B,2C2- | 
[V:3] z2a4g2 | 
[V:4] F,4E,4 | 
[V:1] G2A2F4 | 
[V:2] CCA,2A4 | 
[V:3] e2f2d4 | 
[V:4] z2D,2D,E,F,G, | 
[V:1] E2F2E3C | 
[V:2] A4A4 | 
[V:3] c4c4 | 
[V:4] A,4A,2A,2 | 
[V:1] D2E2C2D2- | 
[V:2] z4z2A2 | 
[V:3] B2>G2A2F2 | 
[V:4] G,2>E,2F,2D,2 | 
[V:1] DCC4B,2 | 
[V:2] G2>E2F2D2 | 
[V:3] G4A2GF | 
[V:4] E,4D,4 | 
[V:1] C4z4 | 
[V:2] E4D4 | 
[V:3] G2c4B2 | 
[V:4] C,4z4 | 
[V:1] z2E4D2 | 
[V:2] C4z4 | 
[V:3] A2>B2c2d2 | 
[V:4] z2C4B,2 | 
[V:1] C2>B,2A,2B,2 | 
[V:2] z2A4G2 | 
[V:3] e4z4 | 
[V:4] A,2>G,2F,2E,2 | 
[V:1] D4z2G2- | 
[V:2] F2>E2D2C2 | 
[V:3] z2f4e2 | 
[V:4] D,4D,2E,2 | 
[V:1] G2F2E4 | 
[V:2] B,2A,2G,2C2 | 
[V:3] d2>c2B2A2 | 
[V:4] G,2D,2E,4 | 
[V:1] E4E2E2 | 
[V:2] B,A,B,2C4 | 
[V:3] GA2^GA4 | 
[V:4] E,4A,4 | 
[V:1] F2G2A2B2 | 
[V:2] z2E2F2G2 | 
[V:3] z8 | 
[V:4] z8 | 
[V:1] c2G2A2G2 | 
[V:2] A2B2c3B | 
[V:3] z8 | 
[V:4] z4z2E,2 | 
[V:1] F2E4D2 | 
[V:2] A2GF/ E/F4 | 
[V:3] z8 | 
[V:4] F,2G,2A,2B,2 | 
[V:1] E4z4 | 
[V:2] E8 | 
[V:3] z2c2c2B2 | 
[V:4] C2>B,2A,2^G,2 | 
[V:1] z2c2c2B2 | 
[V:2] z2A2A2^G2 | 
[V:3] c2ABcde2 | 
[V:4] A,4z4 | 
[V:1] cBAGF2G2 | 
[V:2] A2FGABc2- | 
[V:3] A2c2c4 | 
[V:4] F,4F,2E,2 | 
[V:1] A8- | 
[V:2] c2F4E2 | 
[V:3] A2d4^c2 | 
[V:4] F,2D,E,F,G,A,2 | 
[V:1] A8 | 
[V:2] F4C2C2 | 
[V:3] d2d2e2^f2 | 
[V:4] D,4A,4 | 
[V:1] z2E2F2G2 | 
[V:2] D2A,2z4 | 
[V:3] g2a4g2- | 
[V:4] B,2C2D2E2 | 
[V:1] A2B2c3A | 
[V:2] z2D2E2F2 | 
[V:3] gff2g2c2 | 
[V:4] D4C2A,2 | 
[V:1] _B2A2G4 | 
[V:2] G2A2_B4 | 
[V:3] d8 | 
[V:4] G,2^F,2G,4 | 
[V:1] F2A2A2G2 | 
[V:2] A2F2E3D | 
[V:3] d4z4 | 
[V:4] z2D2C3B, | 
[V:1] F2E2FE/ D/E2 | 
[V:2] C2B,2C3B, | 
[V:3] z8 | 
[V:4] A,2G,2A,3G, | 
[V:1] D8 | 
[V:2] A,2B,A,B,CD2- | 
[V:3] z8 | 
[V:4] F,2G,2>F,2D,2 | 
[V:1] G,4A,4 | 
[V:2] D2^C2D2A2 | 
[V:3] g4f3e | 
[V:4] E,4D,4 | 
[V:1] A4A2A2 | 
[V:2] F2E2F3E | 
[V:3] d2^c2d3c | 
[V:4] z8 | 
[V:1] G2>F2EDD2- | 
[V:2] D2EF2<G2F | 
[V:3] B2c2>B2G2 | 
[V:4] z8 | 
[V:1] D2^C2D4 | 
[V:2] E4A4- | 
[V:3] A4f4 | 
[V:4] z4z2D2 | 
[V:1] A,B,CDE2G2 | 
[V:2] A4z2_B2 | 
[V:3] e2>d2c2d2 | 
[V:4] C2>B,2A,2G,2 | 
[V:1] F2>E2D2^C2 | 
[V:2] A2>G2F2E2 | 
[V:3] d4a4 | 
[V:4] D,4z4 | 
[V:1] DEFGA4- | 
[V:2] F2>E2D2^C2 | 
[V:3] a2>g2f2e2 | 
[V:4] D,4D,2A,2 | 
[V:1] A4G4- | 
[V:2] D2F2E4 | 
[V:3] f2d2>c2c2- | 
[V:4] D,4E,3F, | 
[V:1] G8 | 
[V:2] D8 | 
[V:3] c2BAB4 | 
[V:4] G,8 | 
[V:1] G8
[V:2] E8
[V:3] c8
[V:4] C,8

